X: 221
T: Bandırma Dörtlemesi
C: (Anonim)
O: Turkey
F: http://compmusic.upf.edu/node/140
N: ussak--oyunhavasi--aksak--bandirma_dortlemesi--
N: makam= ussak
N: form= oyunhavasi
N: usul= aksak = 9/8
M: 9/8
L: 1/16
K: C _2/4B   
Q: 1/4=144
%%MIDI tuningsystem comma53
e2ec d2dB cBcd .e2.e2 .e2 | e2 ecd2 dBcB cdBG A2z2  | 
w:   |   | 
e2ec d2dB cBcd .e2.e2 .e2 | e2 ecd2 dBcB cdBG A2z2  | 
w:   |   | 
Gedc BAG2 ABce dcd2 z2 | Ge dcBA G2AB cdBG A2z2  | 
w:   |   | 
Gedc BAG2 ABce dcd2 z2 | Ge dcBA G2AB cdBG A2z2  | 
w:   |   | 
g^fga gfga c'bag fge2 z2 | ag fede dcBA Bc.d2 .d2.d2  | 
w:   |   | 
agfe dedc BABc BGA2 z2 | ag fede dcBA Bc.d2 .d2.d2  | 
w:   |   | 
agfe dedc BABc BGA2 z2 | G2 ABc2 (3BABc2 (3BAB.d2 .d2.d2  | 
w:   |   | 
G2AB c2(3BAB cBcd BAA2 z2 | G2 ABc2 (3BABc2 (3BAB.d2 .d2.d2  | 
w:   |   | 
G2AB c2(3BAB cBcd BAA2 z2 | e2 ecd2 dBcB cd.e2 .e2.e2  | 
w:   |   | 
e2ec d2dB cBcd BGA2 z2 | e2 ecd2 dBcB cd.e2 .e2.e2  | 
w:   |   | 
e2ec d2dB cBcd BGA2 z2 | Ge dcBA G2AB cedc d2z2  | 
w:   |   | 
Gedc BAG2 ABcd BGA2 z2 | Ge dcBA G2AB cedc d2z2  | 
w:   |   | 
Gedc BAG2 ABcd BGA2 z2 | g^f gagf gac'b agfg e2z2  | 
w:   |   | 
agfe dedc BABc .d2.d2 .d2 | ag fede dcBA BcBG A2z2  | 
w:   |   | 
agfe dedc BABc .d2.d2 .d2 | ag fede dcBA BcBG A2z2  | 
w:   |   | 
G2AB c2(3BAB c2(3BAB .d2.d2 .d2 | \
w:   | 
G2 ABc2 (3BABcB cdBA A2z2  | 
w:   | 
G2AB c2(3BAB c2(3BAB .d2.d2 .d2 | \
w:   | 
G2 ABc2 (3BABcB cdBA A2z2  | 
w:   | 
|


